svg/ui icons/UI_thumbs-up.svg

<?xml version='1.0' encoding='utf-8'?>
<svg xmlns="http://www.w3.org/2000/svg" width="27" height="26" viewBox="0 0 27 26" fill="none" stroke="currentColor" stroke-width="1.5">
<path d="M26.0498 21.1704H26.0499L26.0497 21.1734C26.0208 21.6637 25.617 22.0695 25.1232 22.0695H20.5215C20.0282 22.0695 19.6224 21.6637 19.6224 21.1704V11.9942C19.6224 11.5009 20.0282 11.0951 20.5215 11.0951H25.1507C25.644 11.0951 26.0498 11.5009 26.0498 11.9942V21.1704ZM25.1004 21.1206L25.0733 12.017L20.5439 12.0438V21.1475L25.1004 21.1206Z" fill="none" stroke="currentColor" stroke-width="1.5" />
<path d="M18.2524 21.6292L18.251 21.6139L18.2522 21.6292C17.2747 21.7107 16.4873 22.0365 15.9988 22.3079L15.9985 22.3081C15.3891 22.6404 14.6973 22.8341 13.9788 22.8894L13.9788 22.8895H13.975C13.975 22.8895 13.975 22.8895 13.9749 22.8895C13.9747 22.8895 13.9741 22.8896 13.973 22.8896L13.9668 22.8898L13.9449 22.8907L13.8659 22.894L13.5783 22.9062C13.3328 22.9164 12.9846 22.9306 12.564 22.946C11.7228 22.9768 10.5917 23.0128 9.41168 23.0333C8.2318 23.0538 7.00255 23.059 5.96523 23.0282C4.93054 22.9974 4.07962 22.9307 3.66128 22.8053C3.1018 22.6374 2.6795 22.3007 2.42625 21.8221C2.04154 21.1075 2.16938 20.2621 2.25197 19.842C1.17576 18.6983 1.29216 17.5775 1.59015 16.9297C1.03518 16.2249 0.91386 15.4343 0.958421 14.7557C1.00256 14.0836 1.20951 13.5187 1.32174 13.2492C0.859209 11.5964 1.41179 10.5697 1.99669 9.98492C2.52608 9.45554 3.2223 9.14946 3.97326 9.09377L3.97438 9.09372L9.7655 8.79464C9.7694 8.71088 9.75354 8.61446 9.72041 8.5065C9.68183 8.38079 9.62079 8.24249 9.54447 8.09493C9.41463 7.84387 9.24304 7.57062 9.06798 7.29182C9.03699 7.24248 9.0059 7.19296 8.97491 7.14336C8.72865 6.76023 8.48114 6.37515 8.26089 5.96239L8.26054 5.96171C7.76057 4.98925 7.73258 3.8225 8.20495 2.82217L8.20542 2.82123C8.21298 2.80606 8.22048 2.79294 8.22696 2.78171L8.22835 2.7793C8.23439 2.76883 8.2391 2.76067 8.24313 2.75263C8.25098 2.73698 8.25501 2.72416 8.25501 2.70653V2.69393L8.26098 2.68283C8.65424 1.95251 9.43943 1.50607 10.3867 1.50607C11.3877 1.50607 12.2563 1.97903 12.65 2.76592C13.1345 3.69458 13.5742 4.51891 13.9585 5.23926C14.0932 5.49175 14.221 5.73147 14.3417 5.95843C15.2506 6.54114 15.8075 7.42374 16.1439 8.22366C16.4769 9.0155 16.5957 9.7303 16.6257 10.0033C17.0602 10.6949 17.3571 11.0781 17.5908 11.2985C17.8227 11.5172 17.992 11.5753 18.1764 11.6148L18.1771 11.615C18.557 11.7026 18.8185 12.0523 18.8185 12.4307V20.9202C18.8466 21.3013 18.5816 21.5993 18.2524 21.6292ZM15.8225 10.4577L15.8223 10.4578L15.8201 10.4533L15.8182 10.4496C15.7914 10.3957 15.7631 10.339 15.7352 10.2549L15.7327 10.2472V10.2392C15.7327 10.2392 15.7326 10.2385 15.7325 10.2367L15.7319 10.229C15.7314 10.2224 15.7305 10.2136 15.7292 10.2025C15.7266 10.1803 15.7226 10.1497 15.7169 10.1115C15.7055 10.0353 15.6873 9.92925 15.6601 9.80101C15.6058 9.54447 15.5157 9.19952 15.373 8.82582C15.0873 8.07764 14.5933 7.22067 13.759 6.72203C13.6936 6.68886 13.6336 6.62617 13.5772 6.54162L13.577 6.54173L13.5749 6.5378C13.0817 5.63341 12.5062 4.53741 11.8214 3.22245L11.821 3.22172C11.5854 2.7506 11.0039 2.45509 10.3591 2.45509C9.74383 2.45509 9.26918 2.72209 9.0331 3.14175L9.03478 3.14269L9.02488 3.15259C9.01819 3.15928 9.01442 3.16576 9.0086 3.18031C9.00735 3.18341 9.006 3.18695 9.0045 3.19088C8.99893 3.20544 8.99129 3.22543 8.97954 3.2488C8.63077 3.97346 8.65737 4.83315 9.03392 5.55939L9.03424 5.56004C9.17225 5.83591 9.33817 6.09654 9.50316 6.35571C9.56579 6.4541 9.62829 6.55227 9.68907 6.65099C9.96233 7.06093 10.2316 7.46814 10.4116 7.86604C10.5914 8.26382 10.685 8.65854 10.6001 9.04292C10.5406 9.42397 10.2182 9.68464 9.8426 9.71349L9.8426 9.71351L9.84132 9.71357L3.95209 10.0149L3.95202 10.0149C3.41657 10.0416 2.93514 10.2556 2.56047 10.6303C1.97528 11.2155 1.83658 12.043 2.1622 13.1279L2.16225 13.1279L2.16282 13.1302C2.19102 13.2432 2.19466 13.3677 2.13177 13.4664C2.12826 13.4752 2.12229 13.4887 2.11435 13.5067C2.05239 13.647 1.87052 14.0588 1.801 14.5801C1.71999 15.1876 1.79493 15.9296 2.39634 16.5309L2.39634 16.5309C2.55011 16.6847 2.58161 16.9603 2.42671 17.146L2.42687 17.1462L2.42366 17.1494C2.42381 17.1492 2.42359 17.1495 2.42303 17.1502C2.42027 17.1538 2.40913 17.1681 2.39233 17.1946C2.37319 17.2249 2.34831 17.2685 2.32301 17.3243C2.27242 17.4357 2.2204 17.5949 2.20884 17.7914C2.18583 18.1822 2.32231 18.73 2.97069 19.3515L2.9707 19.3514L2.97145 19.3522C3.09006 19.4708 3.15586 19.6547 3.09277 19.815L3.09255 19.8157L3.09023 19.8234C3.0882 19.8303 3.08522 19.8406 3.08154 19.854C3.07417 19.8808 3.06398 19.92 3.05282 19.9691C3.03048 20.0673 3.00436 20.2047 2.98921 20.3613C2.95872 20.6764 2.9735 21.061 3.14394 21.3625L3.144 21.3624L3.14514 21.3647C3.27394 21.6223 3.50647 21.7801 3.82798 21.8873C4.08133 21.9672 4.57474 22.0218 5.22586 22.0561C5.87515 22.0903 6.67536 22.104 7.53784 22.104C9.7556 22.104 12.3569 22.0219 13.8352 21.9398L13.8356 21.9398C14.4031 21.9128 14.9706 21.7505 15.4569 21.4806C15.9749 21.1807 16.8137 20.8279 17.8421 20.7122L17.8417 12.5269C17.5661 12.4407 17.3091 12.3041 17.0188 12.0322C16.6888 11.723 16.3162 11.2393 15.8225 10.4577Z" fill="none" stroke="currentColor" stroke-width="1.5" />
</svg>

<?xml version="1.0" encoding="UTF-8"?>
<svg id="Layer_1" data-name="Layer 1" xmlns="http://www.w3.org/2000/svg" width="27" height="26" viewBox="0 0 27 26">
  <path style="fill: currentColor" d="M26.0498,21.1704h0l-.0002.003c-.0289.4903-.4327.8961-.9265.8961h-4.6017c-.4933,0-.8991-.4058-.8991-.8991v-9.1762c0-.4933.4058-.8991.8991-.8991h4.6292c.4933,0,.8991.4058.8991.8991v9.1762ZM25.1004,21.1206l-.0271-9.1036-4.5294.0268v9.1037l4.5565-.0269Z"/>
  <path style="fill: currentColor" d="M18.2524,21.6292l-.0014-.0153.0012.0153c-.9775.0815-1.7649.4073-2.2534.6787l-.0003.0002c-.6094.3323-1.3012.526-2.0197.5813h0s-.0038,0-.0038,0h-.0001s-.0008.0001-.0019.0001l-.0062.0002-.0219.0009-.079.0033-.2876.0122c-.2455.0102-.5937.0244-1.0143.0398-.8412.0308-1.9723.0668-3.1523.0873-1.1799.0205-2.4091.0257-3.4465-.0051-1.0347-.0308-1.8856-.0975-2.304-.2229-.5595-.1679-.9818-.5046-1.235-.9832-.3847-.7146-.2569-1.56-.1743-1.9801-1.0762-1.1437-.9598-2.2645-.6618-2.9123-.555-.7048-.6763-1.4954-.6317-2.174.0441-.6721.2511-1.237.3633-1.5065-.4625-1.6528.09-2.6795.675-3.2643.5294-.5294,1.2256-.8355,1.9766-.8911h.0011s5.7911-.2991,5.7911-.2991c.0039-.0838-.012-.1802-.0451-.2881-.0386-.1257-.0996-.264-.1759-.4116-.1298-.2511-.3014-.5243-.4765-.8031-.031-.0493-.0621-.0989-.0931-.1485-.2463-.3831-.4938-.7682-.714-1.181l-.0003-.0007c-.5-.9725-.528-2.1392-.0556-3.1395l.0005-.0009c.0076-.0152.0151-.0283.0215-.0395l.0014-.0024c.006-.0105.0108-.0186.0148-.0267.0079-.0157.0119-.0285.0119-.0461v-.0126l.006-.0111c.3933-.7303,1.1785-1.1768,2.1257-1.1768,1.001,0,1.8696.473,2.2633,1.2598.4845.9287.9242,1.753,1.3085,2.4733.1347.2525.2625.4922.3832.7192.9089.5827,1.4658,1.4653,1.8022,2.2652.333.7918.4518,1.5066.4818,1.7796.4345.6916.7314,1.0748.9651,1.2952.2319.2187.4012.2768.5856.3163l.0007.0002c.3799.0876.6414.4373.6414.8157v8.4895c.0281.3811-.2369.6791-.5661.709ZM15.8225,10.4577h-.0002s-.0022-.0044-.0022-.0044l-.0019-.0037c-.0268-.0539-.0551-.1106-.083-.1947l-.0025-.0077v-.008s-.0001-.0007-.0002-.0025l-.0006-.0077c-.0005-.0066-.0014-.0154-.0027-.0265-.0026-.0222-.0066-.0528-.0123-.091-.0114-.0762-.0296-.1823-.0568-.3105-.0543-.2565-.1444-.6015-.2871-.9752-.2857-.7482-.7797-1.6051-1.614-2.1038-.0654-.0332-.1254-.0959-.1818-.1804h-.0002s-.0021-.0038-.0021-.0038c-.4932-.9044-1.0687-2.0004-1.7535-3.3153l-.0004-.0007c-.2356-.4711-.8171-.7666-1.4619-.7666-.6153,0-1.0899.267-1.326.6867l.0017.0009-.0099.0099c-.0067.0067-.0105.0132-.0163.0277-.0013.0031-.0026.0066-.0041.0106-.0056.0146-.0132.0345-.025.0579-.3488.7247-.3222,1.5843.0544,2.3106l.0003.0006c.138.2759.3039.5365.4689.7957.0626.0984.1251.1966.1859.2953.2733.4099.5425.8172.7225,1.2151.1798.3978.2734.7925.1885,1.1769-.0595.3811-.3819.6417-.7575.6706h0s-.0013,0-.0013,0l-5.8892.3013h0c-.5354.0267-1.0169.2407-1.3915.6154-.5852.5852-.7239,1.4127-.3983,2.4976h0l.0006.0023c.0282.113.0318.2375-.0311.3362-.0035.0088-.0095.0223-.0174.0403-.062.1403-.2438.5521-.3134,1.0734-.081.6075-.0061,1.3495.5953,1.9508h0c.1538.1538.1853.4294.0304.6151l.0002.0002-.0032.0032s0,0-.0006.0008c-.0028.0036-.0139.0179-.0307.0444-.0191.0303-.044.0739-.0693.1297-.0506.1114-.1026.2706-.1142.4671-.023.3908.1135.9386.7619,1.5601h0s.0008.0007.0008.0007c.1186.1186.1844.3025.1213.4628l-.0002.0007-.0023.0077c-.002.0069-.005.0172-.0087.0306-.0074.0268-.0176.066-.0287.1151-.0223.0982-.0485.2356-.0636.3922-.0305.3151-.0157.6997.1547,1.0012h0s.0011.0022.0011.0022c.1288.2576.3613.4154.6828.5226.2533.0799.7468.1345,1.3979.1688.6493.0342,1.4495.0479,2.312.0479,2.2178,0,4.8191-.0821,6.2974-.1642h.0004c.5675-.027,1.135-.1893,1.6213-.4592.518-.2999,1.3568-.6527,2.3852-.7684l-.0004-8.1853c-.2756-.0862-.5326-.2228-.8229-.4947-.33-.3092-.7026-.7929-1.1963-1.5745Z"/>
</svg>
